rospo-icon-theme-classic-common/24x24/apps/phoronix-test-suite.svg

<svg height="24" width="24" xmlns="http://www.w3.org/2000/svg"><path d="m4 2.5c-1.108 0-2 .892-2 2v10 6c0 1.108.892 2 2 2s2-.892 2-2v-4h14c1.108 0 2-.892 2-2v-10c0-1.108-.892-2-2-2z" opacity=".2"/><path d="m4 2c-1.108 0-2 .892-2 2v10 6c0 1.108.892 2 2 2s2-.892 2-2v-4h14c1.108 0 2-.892 2-2v-10c0-1.108-.892-2-2-2z" fill="#7cb320"/><path d="m7.923828 5.5c-1.065876 0-1.923828.843-1.923828 1.890625v1.109375h-1.5l2.5 2 2.5-2h-1.5v-1h7 1 2v-.109375c0-1.047625-.857952-1.890625-1.923828-1.890625zm9.076172 3-2.5 2h1.5v1h-7-1-2v .109375c0 1.047625.857952 1.890625 1.923828 1.890625h8.152344c1.065876 0 1.923828-.843 1.923828-1.890625v-1.109375h1.5z" opacity=".2"/><path d="m7.923828 5c-1.065876 0-1.923828.843-1.923828 1.890625v1.109375h-1.5l2.5 2 2.5-2h-1.5v-1h7 1 2v-.109375c0-1.047625-.857952-1.890625-1.923828-1.890625zm9.076172 3-2.5 2h1.5v1h-7-1-2v .109375c0 1.047625.857952 1.890625 1.923828 1.890625h8.152344c1.065876 0 1.923828-.843 1.923828-1.890625v-1.109375h1.5z" fill="#fff"/><circle cx="12" cy="9" fill="#3f3f3f" r="1"/><path d="m4 2c-1.108 0-2 .892-2 2v .5c0-1.108.892-2 2-2h16c1.108 0 2 .892 2 2v-.5c0-1.108-.892-2-2-2z" fill="#fff" opacity=".2"/></svg>

<svg xmlns="http://www.w3.org/2000/svg" width="24" height="24" version="1">
 <path style="opacity:0.2" d="m 4,2.5 c -1.108,0 -2,0.892 -2,2 l 0,10 0,6 c 0,1.108 0.892,2 2,2 1.108,0 2,-0.892 2,-2 l 0,-4 14,0 c 1.108,0 2,-0.892 2,-2 l 0,-10 c 0,-1.108 -0.892,-2 -2,-2 l -16,0 z"/>
 <path style="fill:#7cb320" d="M 4,2 C 2.892,2 2,2.892 2,4 l 0,10 0,6 c 0,1.108 0.892,2 2,2 1.108,0 2,-0.892 2,-2 l 0,-4 14,0 c 1.108,0 2,-0.892 2,-2 L 22,4 C 22,2.892 21.108,2 20,2 L 4,2 Z"/>
 <path style="opacity:0.2" d="M 7.923828,5.5 C 6.857952,5.5 6,6.343 6,7.390625 L 6,8.5 l -1.5,0 2.5,2 2.5,-2 -1.5,0 0,-1 7,0 1,0 2,0 0,-0.109375 C 18,6.343 17.142048,5.5 16.076172,5.5 Z M 17,8.5 l -2.5,2 1.5,0 0,1 -7,0 -1,0 -2,0 0,0.109375 C 6,12.657 6.857952,13.5 7.923828,13.5 l 8.152344,0 C 17.142048,13.5 18,12.657 18,11.609375 L 18,10.5 l 1.5,0 z"/>
 <path style="fill:#ffffff" d="M 7.923828,5 C 6.857952,5 6,5.843 6,6.890625 L 6,8 4.5,8 7,10 9.5,8 8,8 8,7 l 7,0 1,0 2,0 0,-0.109375 C 18,5.843 17.142048,5 16.076172,5 Z M 17,8 l -2.5,2 1.5,0 0,1 -7,0 -1,0 -2,0 0,0.109375 C 6,12.157 6.857952,13 7.923828,13 l 8.152344,0 C 17.142048,13 18,12.157 18,11.109375 L 18,10 l 1.5,0 z"/>
 <circle style="fill:#3f3f3f" cx="12" cy="9" r="1"/>
 <path style="opacity:0.2;fill:#ffffff" d="M 4,2 C 2.892,2 2,2.892 2,4 l 0,0.5 c 0,-1.108 0.892,-2 2,-2 l 16,0 c 1.108,0 2,0.892 2,2 L 22,4 C 22,2.892 21.108,2 20,2 L 4,2 Z"/>
</svg>
